assets/sonr-icons/eye-hide.svg

<svg xmlns="http://www.w3.org/2000/svg" width="24" height="24" fill="none" viewBox="0 0 24 24"><path fill="#000" d="M5.971 5.97097C3.917 7.51597 2.785 9.58497 2.271 10.741C1.913 11.547 1.913 12.456 2.271 13.26C3.14 15.212 5.893 20 12.002 20C14.544 20 16.527 19.161 18.031 18.03L16.599 16.598C15.436 17.411 13.936 18 12.001 18C7.145 18 4.891 14.227 4.097 12.446C3.969 12.159 3.969 11.84 4.097 11.553C4.558 10.518 5.555 8.73097 7.309 7.46797C7.341 7.44597 7.37 7.42197 7.398 7.39597L5.971 5.96997V5.97097Z"/><path fill="#000" d="M9.17198 9.17202C8.44898 9.89502 8.00098 10.895 8.00098 12C8.00098 14.21 9.79198 16 12.001 16C13.106 16 14.106 15.551 14.829 14.828L13.414 13.414C13.051 13.777 12.552 14 12 14C10.895 14 9.99998 13.105 9.99998 12C9.99998 11.448 10.223 10.949 10.586 10.585L9.17298 9.17202H9.17198ZM12 4.00002C18.109 4.00002 20.861 8.78802 21.73 10.74C22.089 11.545 22.089 12.455 21.73 13.26C21.575 13.61 21.366 14.035 21.096 14.501C20.819 14.979 20.208 15.142 19.73 14.866C19.252 14.59 19.089 13.978 19.366 13.499C19.595 13.102 19.773 12.741 19.904 12.447C20.032 12.16 20.032 11.841 19.904 11.554C19.111 9.77302 16.857 6.00002 12.001 6.00002H11.001C10.449 6.00002 10.001 5.55202 10.001 5.00002C10.001 4.44802 10.449 4.00002 11.001 4.00002L12.001 3.99902L12 4.00002Z"/><path fill="#000" d="M2.29303 2.29301C2.68403 1.90201 3.31703 1.90201 3.70703 2.29301L21.707 20.293C22.098 20.684 22.098 21.317 21.707 21.708C21.316 22.099 20.683 22.099 20.292 21.708L2.29203 3.70801C1.90103 3.31701 1.90203 2.68401 2.29303 2.29301Z"/></svg>

<svg xmlns="http://www.w3.org/2000/svg" width="24" height="24" fill="none"><path fill="currentColor" d="M5.971 5.971c-2.054 1.545-3.186 3.614-3.7 4.77a3.09 3.09 0 0 0 0 2.519C3.14 15.212 5.893 20 12.002 20c2.542 0 4.525-.839 6.029-1.97l-1.432-1.432C15.436 17.411 13.936 18 12.001 18c-4.856 0-7.11-3.773-7.904-5.554a1.09 1.09 0 0 1 0-.893c.461-1.035 1.458-2.822 3.212-4.085a1 1 0 0 0 .089-.072L5.971 5.97z"/><path fill="currentColor" d="M9.172 9.172a4 4 0 1 0 5.657 5.656l-1.415-1.414a2 2 0 1 1-2.828-2.829zM12 4c6.109 0 8.861 4.788 9.73 6.74a3.08 3.08 0 0 1 0 2.52c-.155.35-.364.775-.634 1.241a1 1 0 1 1-1.73-1.002c.229-.397.407-.758.538-1.052a1.09 1.09 0 0 0 0-.893C19.111 9.773 16.857 6 12.001 6h-1a1 1 0 0 1 0-2z"/><path fill="currentColor" d="M2.293 2.293a1 1 0 0 1 1.414 0l18 18a1 1 0 1 1-1.415 1.415l-18-18a1 1 0 0 1 .001-1.415"/></svg>
